src/icons/svg/edit.svg

<?xml version="1.0" encoding="UTF-8" standalone="no"?>
<svg width="128px" height="128px" viewBox="0 0 128 128" version="1.1" xmlns="http://www.w3.org/2000/svg" xmlns:xlink="http://www.w3.org/1999/xlink">
    <!-- Generator: Sketch 40 (33762) - http://www.bohemiancoding.com/sketch -->
    <title>edit</title>
    <desc>Created with Sketch.</desc>
    <defs></defs>
    <g id="Page-1" stroke="none" stroke-width="1" fill="none" fill-rule="evenodd">
        <g id="edit" fill="#000000">
            <g id="Group">
                <path d="M106.133333,67.2 C103.48,67.2 101.333333,69.3466667 101.333333,72 C101.333333,72.1866667 101.346667,72.36 101.36,72.5333333 L101.333333,72.5333333 L101.333333,118.4 L9.6,118.4 L9.6,26.6666667 L59.7333333,26.6666667 C62.3866667,26.6666667 64.5333333,24.52 64.5333333,21.8666667 C64.5333333,19.2133333 62.3866667,17.0666667 59.7333333,17.0666667 L9.6,17.0666667 C4.29333333,17.0666667 0,21.36 0,26.6666667 L0,118.4 C0,123.706667 4.29333333,128 9.6,128 L101.333333,128 C106.64,128 110.933333,123.706667 110.933333,118.4 L110.933333,72.5333333 L110.906667,72.5333333 C110.92,72.36 110.933333,72.1866667 110.933333,72 C110.933333,69.3466667 108.786667,67.2 106.133333,67.2 L106.133333,67.2 Z" id="Shape"></path>
                <path d="M125.16,13.3733333 L114.586667,2.8 C110.84,-0.946666667 104.733333,-0.92 100.986667,2.82666667 L48.0266667,55.7866667 C47.64,56.1733333 47.3333333,56.64 47.12,57.1466667 L33.8133333,88.5333333 C33.0666667,90.2933333 33.5866667,92.0666667 34.72,93.2133333 C35.8533333,94.36 37.64,94.88 39.4133333,94.1333333 L70.8133333,80.84 C71.32,80.6266667 71.7733333,80.32 72.1733333,79.9333333 L125.133333,26.9733333 C128.88,23.2266667 128.906667,17.12 125.16,13.3733333 L125.16,13.3733333 Z M66.1066667,72.4 L47.7866667,80.16 L55.5466667,61.84 L92.72,24.6666667 L103.28,35.2266667 L66.1066667,72.4 L66.1066667,72.4 Z M118.333333,20.1733333 L110.066667,28.44 L99.5066667,17.88 L107.773333,9.61333333 L107.8,9.58666667 L118.36,20.1466667 L118.333333,20.1733333 L118.333333,20.1733333 Z" id="Shape"></path>
            </g>
        </g>
    </g>
</svg>

<svg width="128" height="128" xmlns="http://www.w3.org/2000/svg"><g fill-rule="evenodd"><path d="M106.133 67.2a4.797 4.797 0 0 0-4.8 4.8c0 .187.014.36.027.533h-.027V118.4H9.6V26.667h50.133c2.654 0 4.8-2.147 4.8-4.8 0-2.654-2.146-4.8-4.8-4.8H9.6a9.594 9.594 0 0 0-9.6 9.6V118.4c0 5.307 4.293 9.6 9.6 9.6h91.733c5.307 0 9.6-4.293 9.6-9.6V72.533h-.026c.013-.173.026-.346.026-.533 0-2.653-2.146-4.8-4.8-4.8z"/><path d="M125.16 13.373L114.587 2.8c-3.747-3.747-9.854-3.72-13.6.027l-52.96 52.96a4.264 4.264 0 0 0-.907 1.36L33.813 88.533c-.746 1.76-.226 3.534.907 4.68 1.133 1.147 2.92 1.667 4.693.92l31.4-13.293c.507-.213.96-.52 1.36-.907l52.96-52.96c3.747-3.746 3.774-9.853.027-13.6zM66.107 72.4l-18.32 7.76 7.76-18.32L92.72 24.667l10.56 10.56L66.107 72.4zm52.226-52.227l-8.266 8.267-10.56-10.56 8.266-8.267.027-.026 10.56 10.56-.027.026z"/></g></svg>
